build/images/work/metrik/logo.svg

<?xml version="1.0" encoding="utf-8"?>
<!-- Generator: Adobe Illustrator 17.1.0, SVG Export Plug-In . SVG Version: 6.00 Build 0)  -->
<!DOCTYPE svg PUBLIC "-//W3C//DTD SVG 1.1//EN" "http://www.w3.org/Graphics/SVG/1.1/DTD/svg11.dtd">
<svg version="1.1" id="Layer_1" xmlns="http://www.w3.org/2000/svg" xmlns:xlink="http://www.w3.org/1999/xlink" x="0px" y="0px"
	 viewBox="0 0 432.464 112.898" enable-background="new 0 0 432.464 112.898" xml:space="preserve">
<g>
	<path fill="#FFFFFF" d="M105.966,73.459c0-11.154-4.143-18.165-15.138-18.165c-10.039,0-14.182,7.011-14.979,15.935v39.837H55.453
		V73.459c0-11.154-3.984-18.165-15.138-18.165s-15.138,8.923-15.138,19.281v36.49H4.781V51.788H0V37.925h25.177v11.473
		c7.967-15.615,25.974-13.862,31.869-12.429c6.693,1.753,12.27,6.215,15.457,13.704c12.907-17.847,29.161-15.138,35.056-13.704
		c10.836,2.868,18.644,12.907,18.644,31.71l0.159,42.387h-20.396V73.459z"/>
	<path fill="#FFFFFF" d="M152.813,80.949c0.478,4.302,3.347,9.241,6.852,11.632c5.577,3.824,14.022,3.824,19.44,0
		c1.593-1.115,3.346-2.071,4.462-3.665l12.907,12.748c-2.391,2.39-4.94,4.462-7.968,6.215c-11.792,6.692-26.452,6.692-38.243,0
		c-11.792-6.853-19.122-19.601-19.122-33.304c0-13.704,7.33-26.293,19.122-33.145c11.792-6.852,26.452-6.852,38.243,0
		c11.951,6.852,18.325,18.484,16.891,39.519H152.813z M186.277,68.36c-1.116-4.78-3.347-9.242-7.171-11.792
		c-5.418-3.665-13.863-3.665-19.44,0c-3.665,2.55-6.055,7.012-7.17,11.792H186.277z"/>
	<path fill="#FFFFFF" d="M240.136,58.321v52.744h-20.396V58.321h-10.995V37.925h10.995V3.188h20.396v34.737h10.995v20.396H240.136z"
		/>
	<path fill="#FFFFFF" d="M283,49.397c7.967-15.615,25.974-14.182,31.869-12.588c2.071,0.479,3.824,1.435,5.577,2.391l-12.27,19.121
		c-2.391-2.071-5.736-3.187-10.039-3.187c-11.154,0-15.138,8.923-15.138,19.28v36.65h-20.396V51.947h-5.1V37.925H283V49.397z"/>
	<path fill="#FFFFFF" d="M329.367,111.065V51.947h-4.939V37.925h25.336v73.141H329.367z M325.862,13.704
		C325.862,6.215,331.917,0,339.565,0c7.49,0,13.704,6.215,13.704,13.704c0,7.648-6.214,13.704-13.704,13.704
		C331.917,27.408,325.862,21.353,325.862,13.704z"/>
	<path fill="#FFFFFF" d="M428.64,111.065h-23.424l-14.501-28.683h-7.33v28.683h-20.396V14.023h-4.939V0h25.336v61.827h2.869
		l18.962-23.902h27.248l-26.133,32.348L428.64,111.065z"/>
</g>
</svg>

<svg xmlns="http://www.w3.org/2000/svg" width="433" height="113" viewBox="0 0 433 113">
  <g fill="none" fill-rule="evenodd">
    <path fill="#FFFFFF" d="M105.966 73.459C105.966 62.305 101.823 55.294 90.828 55.294 80.789 55.294 76.646 62.305 75.849 71.229L75.849 111.066 55.453 111.066 55.453 73.459C55.453 62.305 51.469 55.294 40.315 55.294 29.161 55.294 25.177 64.217 25.177 74.575L25.177 111.065 4.781 111.065 4.781 51.788 0 51.788 0 37.925 25.177 37.925 25.177 49.398C33.144 33.783 51.151 35.536 57.046 36.969 63.739 38.722 69.316 43.184 72.503 50.673 85.41 32.826 101.664 35.535 107.559 36.969 118.395 39.837 126.203 49.876 126.203 68.679L126.362 111.066 105.966 111.066 105.966 73.459 105.966 73.459zM152.813 80.949C153.291 85.251 156.16 90.19 159.665 92.581 165.242 96.405 173.687 96.405 179.105 92.581 180.698 91.466 182.451 90.51 183.567 88.916L196.474 101.664C194.083 104.054 191.534 106.126 188.506 107.879 176.714 114.571 162.054 114.571 150.263 107.879 138.471 101.026 131.141 88.278 131.141 74.575 131.141 60.871 138.471 48.282 150.263 41.43 162.055 34.578 176.715 34.578 188.506 41.43 200.457 48.282 206.831 59.914 205.397 80.949L152.813 80.949 152.813 80.949zM186.277 68.36C185.161 63.58 182.93 59.118 179.106 56.568 173.688 52.903 165.243 52.903 159.666 56.568 156.001 59.118 153.611 63.58 152.496 68.36L186.277 68.36 186.277 68.36z"/>
    <polygon fill="#FFFFFF" points="240.136 58.321 240.136 111.065 219.74 111.065 219.74 58.321 208.745 58.321 208.745 37.925 219.74 37.925 219.74 3.188 240.136 3.188 240.136 37.925 251.131 37.925 251.131 58.321 240.136 58.321"/>
    <path fill="#FFFFFF" d="M283,49.397 C290.967,33.782 308.974,35.215 314.869,36.809 C316.94,37.288 318.693,38.244 320.446,39.2 L308.176,58.321 C305.785,56.25 302.44,55.134 298.137,55.134 C286.983,55.134 282.999,64.057 282.999,74.414 L282.999,111.064 L262.603,111.064 L262.603,51.947 L257.503,51.947 L257.503,37.925 L283,37.925 L283,49.397 L283,49.397 Z"/>
    <polygon fill="#FFFFFF" points="329.367 111.065 329.367 51.947 324.428 51.947 324.428 37.925 349.764 37.925 349.764 111.066 329.367 111.066"/>
    <path fill="#241D65" d="M325.862,13.704 C325.862,6.215 331.917,0 339.565,0 C347.055,0 353.269,6.215 353.269,13.704 C353.269,21.352 347.055,27.408 339.565,27.408 C331.917,27.408 325.862,21.353 325.862,13.704 L325.862,13.704 Z"/>
    <polygon fill="#FFFFFF" points="428.64 111.065 405.216 111.065 390.715 82.382 383.385 82.382 383.385 111.065 362.989 111.065 362.989 14.023 358.05 14.023 358.05 0 383.386 0 383.386 61.827 386.255 61.827 405.217 37.925 432.465 37.925 406.332 70.273"/>
  </g>
</svg>
